_includes/icons/ios-today.svg

<svg fill="#666" height="50" viewBox="0 0 50 50" width="50" xmlns="http://www.w3.org/2000/svg"><path d="m12 0c-1.09375 0-2 .90625-2 2v2h-6c-1.070312 0-2 .804688-2 1.957031v40.25c0 .574219.332031 1.128907.734375 1.414063.402344.28125.839844.378906 1.265625.378906h42c.425781 0 .863281-.097656 1.265625-.378906.402344-.285156.734375-.839844.734375-1.414063v-40.25c0-1.046875-.847656-1.957031-1.917969-1.957031h-6.082031v-2c0-1.09375-.90625-2-2-2h-2c-1.09375 0-2 .90625-2 2v2h-18v-2c0-1.09375-.90625-2-2-2zm0 2h2v6h-2zm24 0h2v6h-2zm-32 4h6v2c0 1.09375.90625 2 2 2h2c1.09375 0 2-.90625 2-2v-2h18v2c0 1.09375.90625 2 2 2h2c1.09375 0 2-.90625 2-2v-2h6v7h-42zm0 9h42v31h-42zm28.703125 5.617188-.542969.839843-8.144531 12.636719-5.34375-4.835937-.742187-.667969-1.339844 1.480469.738281.671875 7.09375 6.414062 9.417969-14.613281.542969-.839844z"/></svg>

<svg xmlns="http://www.w3.org/2000/svg" viewBox="0 0 50 50" width="50" height="50" fill="#666"><path d="M 12 0 C 10.90625 0 10 0.90625 10 2 L 10 4 L 4 4 C 2.929688 4 2 4.804688 2 5.957031 L 2 46.207031 C 2 46.78125 2.332031 47.335938 2.734375 47.621094 C 3.136719 47.902344 3.574219 48 4 48 L 46 48 C 46.425781 48 46.863281 47.902344 47.265625 47.621094 C 47.667969 47.335938 48 46.78125 48 46.207031 L 48 5.957031 C 48 4.910156 47.152344 4 46.082031 4 L 40 4 L 40 2 C 40 0.90625 39.09375 0 38 0 L 36 0 C 34.90625 0 34 0.90625 34 2 L 34 4 L 16 4 L 16 2 C 16 0.90625 15.09375 0 14 0 Z M 12 2 L 14 2 L 14 8 L 12 8 Z M 36 2 L 38 2 L 38 8 L 36 8 Z M 4 6 L 10 6 L 10 8 C 10 9.09375 10.90625 10 12 10 L 14 10 C 15.09375 10 16 9.09375 16 8 L 16 6 L 34 6 L 34 8 C 34 9.09375 34.90625 10 36 10 L 38 10 C 39.09375 10 40 9.09375 40 8 L 40 6 L 46 6 L 46 13 L 4 13 Z M 4 15 L 46 15 L 46 46 L 4 46 Z M 32.703125 20.617188 L 32.160156 21.457031 L 24.015625 34.09375 L 18.671875 29.257813 L 17.929688 28.589844 L 16.589844 30.070313 L 17.328125 30.742188 L 24.421875 37.15625 L 33.839844 22.542969 L 34.382813 21.703125 Z"/></svg>
